X:1
T: Heather Hill
C:Dan R. MacDonald
R:Reel
Q: 232
K:G
M:4/4
L:1/8
|:G2 BA BG GB|de dB G1/2G1/2G GB|de dB de gd|eg dB A1/2A1/2A AB|
G2 BA BG GB|de dB G1/2G1/2G GB|de dB de gd|eg dB G1/2G1/2G Ge|
ga ge gd de|ga ge de gd|ea ab ag eg|ab ag e1/2e1/2e ef|
ga ge gd de|ga ge de gd|ea ab ag ea|ge dB G1/2G1/2G G2:|
